M48
;DRILL FILE
;Generated by LibrePCB 0.1.3
;Creation Date: 2020-05-07T14:01:10
FMAT,2
METRIC,TZ
T1C0.3
T2C0.9
T3C1.1
%
G90
G05
M71
T1
X7.9375Y8.255
X6.985Y5.715
X17.78Y8.5725
X5.715Y4.7625
X7.62Y4.7625
X15.24Y8.255
T2
X4.445Y2.2225
X6.985Y2.2225
X1.905Y2.2225
X12.065Y2.2225
X9.525Y2.2225
X14.605Y2.2225
X12.7Y13.335
X15.24Y13.335
X5.08Y13.335
X17.78Y13.335
X20.32Y13.335
X7.62Y13.335
X10.16Y13.335
X2.54Y13.335
T3
X20.0025Y4.445
X22.5425Y6.985
X22.5425Y1.905
X22.5425Y4.445
X20.0025Y6.985
X20.0025Y1.905
T0
M30
